X:1
T:The Great Judgment Day
T:The Great Judgment Day
T:Haldor Lillenas
T:Haldor Lillenas, 1917
T:Public Domain Courtesy of the Cyber Hymnal™
T:Public Domain Courtesy of the Cyber Hymnal™
C:Haldor Lillenas
Z:Public Domain
Z:Courtesy of the Cyber Hymnal™
%%score ( 1 2 ) ( 3 4 )
L:1/8
Q:1/4=92
M:6/8
K:C
V:1 treble 
V:2 treble 
V:3 bass 
V:4 bass 
V:1
 [CE][CE][CE] [DE][DE][DE] | [CE] [CE]4 [CE] | [CA][CA][CA] [Ec][Ec][Ec] | [E^GB]3- [EGB]2 [EGB] | %4
w: 1.~Some day when time shall have|writ- ten Its|sto- ry, and mer- cy is|past; * The|
w: 2.~Those who re- ject- ed the|Sav- ior And|spurned all His in- fi- nite|grace, * Who|
w: 3.~Those who would trust in their|good- ness, De-|ny- ing the need of the|cross, * Will|
w: 4.~But those who trust- ed the|Sav- ior, Re-|pent- ed and turned from their|sin, * Shall|
 [FA][FA][FA] cBA | [EG] [Ec]4 [Ec] | BDB ADA | G3- !fermata![B,DG]2 G | %8
w: mul- ti- tude mil- lions shall|ga- ther To|judg- ment, an ar- my so|vast. From all|
w: oft- en had been free- ly|of- fered His|par- don- ing kiss and em-|brace, And those|
w: find their self right- eous- ness|van- ish, Their|gar- ments but rags and but|dross. And those|
w: hear the glad mes- sage of|wel- come: “Well|done, to My joy en- ter|in.” Their sins|
 [B,F][B,F][B,F] [B,F][B,E][B,D] | [CE] [EG]4 G | [FA][FA][FA] [Ec][EB][EA] | %11
w: * of the ends of cre-|a- tion, From|grave- yard, from o- cean, from|
w: * who ne- glect- ed to|seek Him— “Some|o- ther time,” this was their|
w: * who by some means or|o- ther Would|en- ter, but not thro’ the|
w: * from the book have been|blot- ted, Their|re- cord is whit- er than|
 [E^GB]3- [EGB]2 [F=G] | [Ec][Ec][Ec] [Ge][Gd][Gc] | [Fd]3 [FA]2 A | [EG][Ec][Ec] [FB][FA][FB] | %15
w: land, * Each|race, ev- ery tongue, tribe and|na- tion Be-|fore the white throne then must|
w: plea— * Shall|hear, “De- part, I nev- er|knew you”; How|sad will their des- ti- ny|
w: blood, * For|ev- er a- way shall be|ban- ished To|dark- ness of night with- out|
w: snow, * Through-|out all the un- end- ing|ag- es The|joy of their Lord they shall|
 [Ec]3- [Ec]2 z ||"^Refrain" [EG][EG][EG] [EG]3 | [FA][FA][FA] [FA]3 | [FB][FB][FB] [FB][FA][FB] | %19
w: stand. *||||
w: be! *||||
w: God. *||||
w: know. *||||
 [Ec][EG][EG] [EG]3 | [Ge][Ge][Ge] [Gc]2 [Gc] | [Fd]2 [FA] !fermata![^Dc][DB]"^riten."[DA] | %22
w: |||
w: |||
w: |||
w: |||
 [EG]2 [EG] [DG]2 [FG] | [EG]3- [EG]2 |] %24
w: ||
w: ||
w: ||
w: ||
V:2
 x6 | x6 | x6 | x6 | x3 F3 | x6 | D3 C3 | B,C^C x3 | x6 | x6 | x6 | x6 | x6 | x6 | x6 | x6 || x6 | %17
 x6 | x6 | x6 | x6 | x6 | x6 | x5 |] %24
V:3
 [C,G,]3 [B,,^G,]3 | [A,,A,] (C,E,CB,)A, | [C,E,]3 [C,A,]3 | (E,,{F,}^G,B,DC)B, | [F,C]3 A,B,C | %5
w: ~ ~|~ ~ * * * ~|~ ~|~ * * * * ~|~ ~ ~ ~|
 C, (E,G,A,G,)E, | [D,G,]3 [D,^F,]3 | ([D,G,]^D,E, !fermata![G,,=F,]2) z | [D,G,]3 [G,,G,]3 | %9
w: ~ ~ * * * ~|~ ~|~ * * *|~ ~|
 C, (E,G,A,G,)E, | [F,C]3 A,B,C | (E,,^G,B,DC)B, | [C,C]3 [C,C][D,B,][E,C] | (F,,A,C) DCA, | %14
w: ~ ~ * * * ~|~ ~ ~ ~|~ * * * * ~|~ ~ ~ ~|~ * * ~ ~ ~|
 [G,C]3 [G,,G,]3 | (C,A,G, [C,C]2) z || [C,C][C,C][C,C] [C,C]3 | [F,C][F,C][F,C] [F,C]3 | %18
w: ~ ~|~ * * *|You will be there,|I will be there;|
 G,G,G, [G,,G,][G,,G,][G,,G,] | [C,G,][C,C][C,C] [C,C]3 | [C,C][C,C][C,C] [E,C]2 [E,C] | %21
w: Shall our hearts tre- mble with|fear or des- pair?|When the great Judge our|
 [F,A,]2 [F,C] !fermata![^F,A,][F,B,][F,C] | [G,C]2 [G,C] [G,,B,]2 [G,,D] | [C,C]3- [C,C]2 |] %24
w: names will call On that|great and dread- ful|day. *|
V:4
 x6 | x6 | x6 | x6 | x3 F,3 | x6 | x6 | G,,2- x4 | x6 | x6 | x3 A,3 | x6 | x6 | x6 | x6 | x6 || %16
 x6 | x6 | G,G,G, x3 | x6 | x6 | x6 | x6 | x5 |] %24

